tools/download-figma-icons/icons/outlined-medium/virus.svg

<svg width="24" height="24" viewBox="0 0 24 24" fill="none" xmlns="http://www.w3.org/2000/svg">
<path fill-rule="evenodd" clip-rule="evenodd" d="M16.2433 15.1823L16.7338 15.6728C17.3788 14.844 17.8115 13.8428 17.948 12.7501H17.2498C16.8358 12.7501 16.4998 12.4141 16.4998 12.0001C16.4998 11.5854 16.8358 11.2501 17.2498 11.2501H17.948C17.8115 10.1574 17.3788 9.15617 16.7338 8.32668L16.2433 8.81717C16.0963 8.96417 15.905 9.03692 15.713 9.03692C15.5211 9.03692 15.3291 8.96417 15.1828 8.81717C14.8896 8.52468 14.8896 8.04994 15.1828 7.75669L15.6733 7.2662C14.8438 6.62122 13.8433 6.18848 12.7499 6.05198V6.75021C12.7499 7.16421 12.4146 7.5002 11.9999 7.5002C11.5859 7.5002 11.2499 7.16421 11.2499 6.75021V6.05198C10.1572 6.18848 9.15593 6.62122 8.3272 7.2662L8.81769 7.75669C9.11093 8.04994 9.11093 8.52468 8.81769 8.81717C8.67144 8.96417 8.47945 9.03692 8.28745 9.03692C8.09545 9.03692 7.90421 8.96417 7.75721 8.81717L7.26672 8.32668C6.62173 9.15617 6.18899 10.1574 6.05249 11.2501H6.74998C7.16472 11.2501 7.49997 11.5854 7.49997 12.0001C7.49997 12.4141 7.16472 12.7501 6.74998 12.7501H6.05249C6.18899 13.8428 6.62173 14.844 7.26672 15.6728L7.75721 15.1823C8.05045 14.889 8.52519 14.889 8.81769 15.1823C9.11093 15.4748 9.11093 15.9495 8.81769 16.2428L8.3272 16.7333C9.15593 17.3782 10.1572 17.811 11.2499 17.9475V17.25C11.2499 16.8353 11.5859 16.5 11.9999 16.5C12.4146 16.5 12.7499 16.8353 12.7499 17.25V17.9475C13.8433 17.811 14.8438 17.3782 15.6733 16.7333L15.1828 16.2428C14.8896 15.9495 14.8896 15.4748 15.1828 15.1823C15.4753 14.889 15.95 14.889 16.2433 15.1823ZM21.2081 11.2503C21.4676 10.8033 21.9461 10.5003 22.4995 10.5003C23.3283 10.5003 23.9995 11.1715 23.9995 12.0002C23.9995 12.8282 23.3283 13.5002 22.4995 13.5002C21.9461 13.5002 21.4676 13.1965 21.2081 12.7502H19.4621C19.3121 14.2554 18.7136 15.6309 17.8039 16.7431L19.0414 17.9806C19.5409 17.8486 20.0936 17.9716 20.4851 18.3639C21.0708 18.9496 21.0708 19.8991 20.4851 20.4848C19.8993 21.0706 18.9499 21.0706 18.3641 20.4848C17.9719 20.0941 17.8489 19.5406 17.9809 19.0411L16.7434 17.8036C15.6312 18.7134 14.2557 19.3118 12.7497 19.4618V21.2078C13.1967 21.4681 13.4997 21.9458 13.4997 22.5C13.4997 23.328 12.8285 24 11.9998 24C11.1718 24 10.4998 23.328 10.4998 22.5C10.4998 21.9458 10.8035 21.4681 11.2498 21.2078V19.4618C9.74455 19.3118 8.36908 18.7134 7.25685 17.8036L6.01938 19.0411C6.15138 19.5406 6.02838 20.0941 5.63614 20.4848C5.0504 21.0706 4.10092 21.0706 3.51518 20.4848C2.92944 19.8991 2.92944 18.9496 3.51518 18.3639C3.90592 17.9716 4.45941 17.8486 4.9589 17.9806L6.19637 16.7431C5.28664 15.6309 4.68815 14.2554 4.53816 12.7502H2.79219C2.53195 13.1965 2.05421 13.5002 1.49997 13.5002C0.671986 13.5002 0 12.8282 0 12.0002C0 11.1715 0.671986 10.5003 1.49997 10.5003C2.05421 10.5003 2.53195 10.8033 2.79219 11.2503H4.53816C4.68815 9.74429 5.28664 8.36882 6.19637 7.25659L4.9589 6.01912C4.45941 6.15111 3.90592 6.02812 3.51518 5.63587C2.92944 5.05013 2.92944 4.10065 3.51518 3.51492C4.10092 2.92918 5.0504 2.92918 5.63614 3.51492C6.02838 3.90641 6.15138 4.45915 6.01938 4.95864L7.25685 6.19611C8.36908 5.28638 9.74455 4.68864 11.2498 4.5379V2.79193C10.8035 2.53244 10.4998 2.05395 10.4998 1.50046C10.4998 0.671725 11.1718 0.000488271 11.9998 0.000488271C12.8285 0.000488271 13.4997 0.671725 13.4997 1.50046C13.4997 2.05395 13.1967 2.53244 12.7497 2.79193V4.5379C14.2557 4.68864 15.6312 5.28638 16.7434 6.19611L17.9809 4.95864C17.8489 4.45915 17.9719 3.90641 18.3641 3.51492C18.9499 2.92918 19.8993 2.92918 20.4851 3.51492C21.0708 4.10065 21.0708 5.05013 20.4851 5.63587C20.0936 6.02812 19.5409 6.15111 19.0414 6.01912L17.8039 7.25659C18.7136 8.36882 19.3121 9.74429 19.4621 11.2503H21.2081ZM10.5003 11.9997C10.5003 11.1718 11.1723 10.4998 12.0003 10.4998C12.8282 10.4998 13.5002 11.1718 13.5002 11.9997C13.5002 12.8277 12.8282 13.4997 12.0003 13.4997C11.1723 13.4997 10.5003 12.8277 10.5003 11.9997Z" fill="black"/>
</svg>

<svg width="24" height="24" viewBox="0 0 24 24" fill="none" xmlns="http://www.w3.org/2000/svg"><path fill-rule="evenodd" clip-rule="evenodd" d="m16.243 15.182.49.49a5.955 5.955 0 0 0 1.215-2.922h-.698a.75.75 0 0 1 0-1.5h.698a5.96 5.96 0 0 0-1.214-2.923l-.49.49a.746.746 0 0 1-1.061 0 .75.75 0 0 1 0-1.06l.49-.49a5.958 5.958 0 0 0-2.923-1.215v.698a.75.75 0 1 1-1.5 0v-.698a5.955 5.955 0 0 0-2.923 1.214l.49.49a.75.75 0 1 1-1.06 1.061l-.49-.49a5.96 5.96 0 0 0-1.215 2.923h.698a.75.75 0 1 1 0 1.5h-.698a5.955 5.955 0 0 0 1.215 2.923l.49-.49a.749.749 0 1 1 1.06 1.06l-.49.49a5.956 5.956 0 0 0 2.923 1.215v-.698a.75.75 0 1 1 1.5 0v.698a5.959 5.959 0 0 0 2.923-1.215l-.49-.49a.75.75 0 1 1 1.06-1.06Zm4.965-3.932c.26-.447.738-.75 1.292-.75a1.5 1.5 0 1 1 0 3 1.493 1.493 0 0 1-1.292-.75h-1.746a7.47 7.47 0 0 1-1.658 3.993l1.237 1.238a1.491 1.491 0 0 1 1.444.383 1.5 1.5 0 1 1-2.12 2.12 1.491 1.491 0 0 1-.384-1.443l-1.238-1.237a7.468 7.468 0 0 1-3.993 1.658v1.746c.447.26.75.738.75 1.292a1.5 1.5 0 0 1-3 0c0-.554.303-1.032.75-1.292v-1.746a7.469 7.469 0 0 1-3.993-1.658L6.019 19.04c.132.5.01 1.053-.383 1.444a1.5 1.5 0 1 1-2.12-2.121 1.49 1.49 0 0 1 1.443-.383l1.237-1.238a7.469 7.469 0 0 1-1.658-3.993H2.792A1.494 1.494 0 0 1 0 12a1.5 1.5 0 0 1 1.5-1.5c.554 0 1.032.303 1.292.75h1.746a7.469 7.469 0 0 1 1.658-3.993L4.96 6.019a1.49 1.49 0 0 1-1.444-.383 1.5 1.5 0 1 1 2.121-2.121c.392.391.515.944.383 1.444l1.238 1.237a7.475 7.475 0 0 1 3.993-1.658V2.792A1.493 1.493 0 0 1 10.5 1.5a1.5 1.5 0 0 1 3 0c0 .554-.303 1.032-.75 1.292v1.746a7.475 7.475 0 0 1 3.993 1.658l1.238-1.237a1.492 1.492 0 0 1 .383-1.444 1.5 1.5 0 1 1 2.121 2.12 1.492 1.492 0 0 1-1.444.384l-1.237 1.238a7.47 7.47 0 0 1 1.658 3.993h1.746ZM10.5 12a1.5 1.5 0 1 1 3.001.001 1.5 1.5 0 0 1-3-.001Z" fill="currentColor"/></svg>
